X:28
T:Ajde Jano
O:Macedonia/Bulgaria
M:7/8
K:Em
E2DEFGA|B2AG4|G2FGAFD|E2DAGFA|
E2DEFGA|B2AG4|G2FGAFD|E2DE/2D/2E/2D/2E2|
|:G2GF2E2|GFEF2G2|F2FE2D2|D3z4|
G2AB2B2|AG2F2E2|A2GF2E2|G5F2|
E3z4|z7|G2AB2B2|AG2F2E2|
A2GF2E2|G5F2|E3z4|z7:|
